src/_includes/svg/pictograms/grunnstonad.svg

<svg width="96" height="96" viewBox="0 0 96 96" fill="none" xmlns="http://www.w3.org/2000/svg">
<g clip-path="url(#clip0_1_3192)">
<path fill-rule="evenodd" clip-rule="evenodd" d="M68 60C76.2843 60 83 53.2843 83 45C83 36.7157 76.2843 30 68 30C59.7157 30 53 36.7157 53 45C53 53.2843 59.7157 60 68 60ZM68 48.75C70.0711 48.75 71.75 47.0711 71.75 45C71.75 42.9289 70.0711 41.25 68 41.25C65.9289 41.25 64.25 42.9289 64.25 45C64.25 47.0711 65.9289 48.75 68 48.75Z" fill="rgb(204 241 214)"/>
<circle cx="34" cy="30" r="13" fill="rgb(204 241 214)"/>
<circle cx="43.5" cy="71.5" r="10.5" fill="rgb(204 241 214)"/>
<path d="M42.5533 24.7912C42.0073 20.0138 45.7435 15.8262 50.552 15.8262H86.448C91.2565 15.8262 94.9927 20.0138 94.4467 24.7912L93.901 29.5666C93.4363 33.6328 89.9949 36.7033 85.9022 36.7033H51.0978C47.0051 36.7033 43.5637 33.6328 43.099 29.5666L42.5533 24.7912Z" stroke="#262626" stroke-width="3"/>
<path d="M82.7395 4.6936L87.5968 15.8148L49.403 15.8148L54.2604 4.69359C55.0766 2.82468 57.123 1.50001 59.5105 1.50001L77.4893 1.50001C79.8768 1.50001 81.9232 2.82468 82.7395 4.6936Z" stroke="#262626" stroke-width="3"/>
<circle cx="54.1737" cy="26.2647" r="2.38771" fill="currentColor"/>
<circle cx="82.8262" cy="26.2647" r="2.38771" fill="currentColor"/>
<path d="M50.2 36.7H57.1V43.2C57.1 44.0284 56.4284 44.7 55.6 44.7H51.7C50.8715 44.7 50.2 44.0284 50.2 43.2V36.7Z" stroke="#262626" stroke-width="3"/>
<path d="M79.9 36.7H86.8V43.2C86.8 44.0284 86.1285 44.7 85.3 44.7H81.4C80.5716 44.7 79.9 44.0284 79.9 43.2V36.7Z" stroke="#262626" stroke-width="3"/>
<path d="M21.9605 50L23.3744 49.4993L23.0206 48.5H21.9605V50ZM38.0482 50V48.5H36.9881L36.6342 49.4993L38.0482 50ZM46.0588 51.8851L44.7864 52.6794L45.0491 53.1003L45.511 53.2815L46.0588 51.8851ZM47.1884 52.5622L46.2169 53.7051L46.2169 53.7051L47.1884 52.5622ZM58.4648 62.1478L57.4933 63.2907V63.2907L58.4648 62.1478ZM58.6933 64.967L57.5505 63.9955L58.6933 64.967ZM53.7566 70.7746L54.8994 71.7461L53.7566 70.7746ZM51.103 71.1296L50.2556 72.3673L50.2556 72.3673L51.103 71.1296ZM46.1656 67.7497L47.013 66.5119L44.7656 64.9735L44.6666 67.6952L46.1656 67.7497ZM45.2812 92.0721L43.7822 92.0176V92.0176L45.2812 92.0721ZM14.7278 92.0721L13.2288 92.1266L14.7278 92.0721ZM13.839 67.6309L15.338 67.5763L15.239 64.8546L12.9917 66.3931L13.839 67.6309ZM9.8969 70.3295L10.7442 71.5672L10.7442 71.5672L9.8969 70.3295ZM7.2433 69.9745L8.38618 69.003H8.38618L7.2433 69.9745ZM2.30653 64.1669L1.16365 65.1384H1.16365L2.30653 64.1669ZM2.53502 61.3477L3.50653 62.4906H3.50653L2.53502 61.3477ZM13.8114 51.7621L12.8399 50.6193L12.8399 50.6193L13.8114 51.7621ZM14.3021 51.4048L15.0911 52.6805L15.2907 52.557L15.4431 52.3784L14.3021 51.4048ZM21.9605 48.5H17.346V51.5H21.9605V48.5ZM30.0043 54.6972C27.118 54.6972 24.4917 52.6543 23.3744 49.4993L20.5465 50.5007C22.0029 54.6133 25.6098 57.6972 30.0043 57.6972V54.6972ZM36.6342 49.4993C35.517 52.6543 32.8907 54.6972 30.0043 54.6972V57.6972C34.3988 57.6972 38.0058 54.6133 39.4622 50.5007L36.6342 49.4993ZM42.663 48.5H38.0482V51.5H42.663V48.5ZM47.3312 51.0908C46.3643 49.5418 44.6394 48.5 42.663 48.5V51.5C43.5589 51.5 44.3429 51.969 44.7864 52.6794L47.3312 51.0908ZM45.511 53.2815C45.7597 53.3791 45.9983 53.5193 46.2169 53.7051L48.16 51.4194C47.6855 51.0161 47.1598 50.7058 46.6066 50.4888L45.511 53.2815ZM46.2169 53.7051L57.4933 63.2907L59.4363 61.0049L48.16 51.4194L46.2169 53.7051ZM57.4933 63.2907C57.7037 63.4695 57.7293 63.7851 57.5505 63.9955L59.8362 65.9385C61.0882 64.4657 60.9091 62.2569 59.4363 61.0049L57.4933 63.2907ZM57.5505 63.9955L52.6137 69.8031L54.8994 71.7461L59.8362 65.9385L57.5505 63.9955ZM52.6137 69.8031C52.4479 69.9981 52.1615 70.0364 51.9503 69.8918L50.2556 72.3673C51.7343 73.3796 53.7388 73.1115 54.8994 71.7461L52.6137 69.8031ZM51.9503 69.8918L47.013 66.5119L45.3183 68.9874L50.2556 72.3673L51.9503 69.8918ZM46.7802 92.1266L47.6646 67.8042L44.6666 67.6952L43.7822 92.0176L46.7802 92.1266ZM43.2825 95.4994C45.166 95.4994 46.7117 94.0089 46.7802 92.1266L43.7822 92.0176C43.7724 92.2865 43.5516 92.4994 43.2825 92.4994V95.4994ZM16.7265 95.4994H43.2825V92.4994H16.7265V95.4994ZM13.2288 92.1266C13.2972 94.0089 14.843 95.4994 16.7265 95.4994V92.4994C16.4574 92.4994 16.2366 92.2865 16.2268 92.0176L13.2288 92.1266ZM12.34 67.6854L13.2288 92.1266L16.2268 92.0176L15.338 67.5763L12.34 67.6854ZM10.7442 71.5672L14.6863 68.8686L12.9917 66.3931L9.04958 69.0917L10.7442 71.5672ZM6.10042 70.946C7.26106 72.3113 9.26551 72.5795 10.7442 71.5672L9.04958 69.0917C8.83833 69.2363 8.55198 69.198 8.38618 69.003L6.10042 70.946ZM1.16365 65.1384L6.10042 70.946L8.38618 69.003L3.4494 63.1954L1.16365 65.1384ZM1.56351 60.2048C0.090722 61.4568 -0.0883025 63.6656 1.16365 65.1384L3.4494 63.1954C3.27055 62.985 3.29613 62.6694 3.50653 62.4906L1.56351 60.2048ZM12.8399 50.6193L1.56351 60.2048L3.50653 62.4906L14.7829 52.905L12.8399 50.6193ZM13.5131 50.129C13.2794 50.2735 13.0543 50.437 12.8399 50.6193L14.7829 52.905C14.8821 52.8207 14.9851 52.746 15.0911 52.6805L13.5131 50.129ZM17.346 48.5C15.6663 48.5 14.1658 49.2536 13.1611 50.4311L15.4431 52.3784C15.9033 51.8391 16.5828 51.5 17.346 51.5V48.5Z" fill="currentColor"/>
</g>
<defs>
<clipPath id="clip0_1_3192">
<rect width="96" height="96" fill="white"/>
</clipPath>
</defs>
</svg>

<svg xmlns="http://www.w3.org/2000/svg" width="96" height="96" fill="none" viewBox="0 0 96 96">
  <path fill="#CCF1D6" fill-rule="evenodd" d="M68 60a15 15 0 1 0 0-30 15 15 0 0 0 0 30Zm0-11.3a3.7 3.7 0 1 0 0-7.4 3.7 3.7 0 0 0 0 7.5Z" clip-rule="evenodd"/>
  <circle cx="34" cy="30" r="13" fill="#CCF1D6"/>
  <circle cx="43.5" cy="71.5" r="10.5" fill="#CCF1D6"/>
  <path stroke="#262626" stroke-width="3" d="M42.6 24.8a8 8 0 0 1 8-9h35.8a8 8 0 0 1 8 9l-.5 4.8a8 8 0 0 1-8 7.1H51.1a8 8 0 0 1-8-7.1l-.5-4.8Z"/>
  <path stroke="#262626" stroke-width="3" d="M77.5 1.5c2.4 0 4.4 1.3 5.2 3.2l4.9 11.1H49.4l4.9-11.1a5.7 5.7 0 0 1 5.2-3.2h18Z"/>
  <circle cx="54.2" cy="26.3" r="2.4" fill="#262626"/>
  <circle cx="82.8" cy="26.3" r="2.4" fill="#262626"/>
  <path stroke="#262626" stroke-width="3" d="M50.2 36.7h6.9v6.5c0 .8-.7 1.5-1.5 1.5h-3.9c-.8 0-1.5-.7-1.5-1.5v-6.5Zm29.7 0h6.9v6.5c0 .8-.7 1.5-1.5 1.5h-3.9c-.8 0-1.5-.7-1.5-1.5v-6.5Z"/>
  <path fill="#262626" d="m22 50 1.4-.5-.4-1h-1V50Zm16 0v-1.5h-1l-.4 1 1.4.5Zm8 1.9-1.2.8.2.4.5.2.6-1.4Zm1.2.7-1 1.1 1-1.1ZM58.5 62l-1 1.2 1-1.2Zm.2 2.9-1.1-1 1 1Zm-5 5.8 1.2 1-1.1-1Zm-2.6.3-.8 1.3.8-1.3Zm-5-3.4 1-1.2-2.3-1.5-.1 2.7h1.5ZM45.3 92h-1.5 1.5Zm-30.6 0h-1.5 1.5Zm-.9-24.5h1.5v-2.7L13 66.4l.8 1.2ZM10 70.3l.8 1.3-.8-1.3ZM7.2 70l1.2-1-1.2 1Zm-4.9-5.8-1.1 1 1.1-1Zm.2-2.9 1 1.2-1-1.2Zm11.3-9.5-1-1.2 1 1.2Zm.5-.4.8 1.3.2-.1.1-.2-1.1-1Zm7.7-2.9h-4.7v3H22v-3Zm8 6.2c-2.9 0-5.5-2-6.6-5.2l-2.9 1c1.5 4.1 5.1 7.2 9.5 7.2v-3Zm6.6-5.2a7 7 0 0 1-6.6 5.2v3c4.4 0 8-3 9.5-7.2l-2.9-1Zm6-1H38v3h4.7v-3Zm4.7 2.6a5.5 5.5 0 0 0-4.6-2.6v3c.9 0 1.6.5 2 1.2l2.6-1.6Zm-1.8 2.2c.3 0 .5.2.7.4l2-2.3-1.6-1-1 2.9Zm.7.4 11.3 9.6 2-2.3-11.3-9.6-2 2.3Zm11.3 9.6c.2.2.2.5 0 .7l2.3 2a3.5 3.5 0 0 0-.4-5l-2 2.3Zm0 .7-4.9 5.8 2.3 2 5-5.9-2.3-1.9Zm-4.9 5.8c-.2.2-.4.2-.6 0l-1.7 2.6c1.4 1 3.4.7 4.6-.7l-2.3-1.9Zm-.6 0-5-3.3-1.7 2.5 5 3.4 1.7-2.5Zm-5.2 22.3.9-24.3-3-.1-1 24.3 3 .1Zm-3.5 3.4c1.9 0 3.4-1.5 3.5-3.4h-3c0 .2-.2.4-.5.4v3Zm-26.6 0h26.6v-3H16.7v3Zm-3.5-3.4c.1 2 1.6 3.4 3.5 3.4v-3a.5.5 0 0 1-.5-.5l-3 .1Zm-.9-24.4 1 24.4h3l-1-24.5h-3Zm-1.6 3.9 4-2.7-1.7-2.5L9 69l1.7 2.5Zm-4.6-.7a3.5 3.5 0 0 0 4.6.7L9 69c-.2.1-.4.1-.6-.1L6 71Zm-5-5.8 5 5.8L8.4 69l-5-5.8-2.2 2Zm.5-4.9a3.5 3.5 0 0 0-.4 5l2.2-2a.5.5 0 0 1 .1-.7l-2-2.3Zm11.2-9.6L1.6 60.2l2 2.3 11.2-9.6-2-2.3Zm.7-.5-.7.5 2 2.3.3-.2-1.6-2.6Zm3.8-1.6c-1.6 0-3.1.8-4.1 2l2.2 1.9c.5-.6 1.2-.9 2-.9v-3Z"/>
</svg>
